!!!OTL: Jian mianhua
!!!ARE: Asia, China,ÿHeilongjiang
!! III, 58
!!!SCT: C1544
!!!YEM: Copyright 1995, estate of Helmut Schaffrath.
**kern
*ICvox
*Ivox
*M2/4
*k[f#c#g#d#]
*E:
{16cc#
16dd#
16cc#
16b
4g#
=1
16g#
16dd#
16cc#
16b
4g#
=2
8ff#
16ff#
16dd#
8cc#
8b
=3
8cc#
8cc#
8r
8g#
=4
8f#
4f#
8e
=5
2f#}
=6
{8g#
16g#
16f#
4g#
=7
8ff#
8dd#
4cc#
=8
8g#
8f#
16g#
16f#
16g#
16b
=9
8g#
4f#
8e}
=10
{8cc#
8cc#
16g#
16cc#
8b}
=11
{8cc#
8cc#
16g#
16cc#
8b}
=12
{8b
16d#
16f#
8g#
8b
=13
8g#
8f#
8e
8c#
=14
8e
16g#
16b
16g#
16f#
16e
16d#
=15
16f#
16g#
4c#
8B
=16
2c#}
=17
{8cc#
8cc#
16g#
16cc#
8b}
=18
{8cc#
8cc#
16g#
16cc#
8b}
=19
{8b
16g#
16f#
16g#
16f#
16g#
16b
=20
8g#
8f#
8e
8c#
=21
8e
16g#
16b
16g#
16f#
16e
16d#
=22
16f#
16g#
4c#
8B
=23
2c#}
=24
{16cc#
16g#
16ff#
16dd#
4cc#}
=25
{16cc#
16g#
16ff#
16dd#
4cc#}
=26
{4cc#
4cc#
=27
4cc#
4cc#}
=28
{8cc#
16g#
16b
8cc#
16cc#
16ee
=29
8.g#
16f#
8e
8c#
=30
8g#
8b
16g#
16f#
16e
16d#
=31
16f#
16g#
4c#
8B
=32
2c#}
==
!!!AGN: Xiaodiao
!!!AMT: simple duple
!!!AIN: vox
!!!EED: Helmut Schaffrath
!!!EEV: 1.0
*-
